img/svg/location.svg

<?xml version="1.0" encoding="utf-8"?><!DOCTYPE svg PUBLIC "-//W3C//DTD SVG 1.1//EN" "http://www.w3.org/Graphics/SVG/1.1/DTD/svg11.dtd"><svg version="1.1" baseProfile="full" xmlns="http://www.w3.org/2000/svg" xmlns:xlink="http://www.w3.org/1999/xlink" xmlns:ev="http://www.w3.org/2001/xml-events"   height="24px"   width="16px" ><path fill="rgb( 255, 102, 0 )" d="M8.00099999999998,0 C3.58300000000003,0 0,3.626 0,8.099 C0,10.388 2.20299999999997,14.487 2.20299999999997,14.487 C2.20299999999997,14.487 7.70600000000002,24 7.70600000000002,24 C7.70600000000002,24 13.448,14.598 13.448,14.598 C13.448,14.598 15.999,10.687 15.999,8.099 C16,3.626 12.418,0 8.00099999999998,0 ZM7.964,12.56 C5.43299999999999,12.56 3.38299999999998,10.471 3.38299999999998,7.89 C3.38299999999998,5.312 5.43299999999999,3.22499999999999 7.964,3.22499999999999 C10.494,3.22499999999999 12.545,5.312 12.545,7.89 C12.545,10.471 10.494,12.56 7.964,12.56 Z "/></svg>

<svg baseProfile="full" xmlns="http://www.w3.org/2000/svg" height="24" width="16"><path fill="rgb( 255, 102, 0 )" d="M8.001 0c-4.418 0-8.001 3.626-8.001 8.099 0 2.289 2.203 6.388 2.203 6.388l5.503 9.513 5.742-9.402s2.551-3.911 2.551-6.499c.001-4.473-3.581-8.099-7.998-8.099zm-.037 12.56c-2.531 0-4.581-2.089-4.581-4.67 0-2.578 2.05-4.665 4.581-4.665 2.53 0 4.581 2.087 4.581 4.665 0 2.581-2.051 4.67-4.581 4.67z"/></svg>
